X: 10773
T: 6. BOB CHADDUCK'S JIG
R: REEL
B: K\"ohler's Violin Repository, v.1, 1885 p.77 #3
F: http://www.archive.org/details/klersviolinrepos01edin
Z: 2012 John Chambers <jc:trillian.mit.edu>
N: The note counts for the repeats aren't quite right.
M: 2/4
L: 1/16
K: A
uE2 |\
(EF)GA BcdB | c2 vF4 vF2 | (Ec) zvA GABG | A2 A,6- |\
A,CEF GABc | vd2 vf6 | ecdB cABG | A4 a2 :|
|: uA2 |\
vA2 ve6 | ud2 uf6 | vc2 ve6 | cBAc BAF2 |\
vc2 ve6 | ud2 uf4 g2 | agae fgaf | ecBc A2 zuE :|
|: v(Ec) zvc B4 | v(Ec) zvc BAF2 | v(Ec) zvc B2f2 | ecBc A2 zuE |\
v(Ec) zvc B4 | v(Ec) zvc BAF2 | (EG)Bc (dc)df | (ec)dB A2 :|

%%sep 2 1 500

